src/assets/icons/file-edit.svg

<svg width="14" height="14" viewBox="0 0 14 14" fill="none" xmlns="http://www.w3.org/2000/svg">
<g id="file-edit">
<g clip-path="url(#clip0_156_4510)">
<path id="Vector" d="M3.97217 12.1073H2.83704C2.31563 12.1073 1.89109 11.6828 1.89109 11.1614V2.08032C1.89109 1.55891 2.31563 1.13437 2.83704 1.13437H5.67488V4.72897C5.67488 5.04226 5.92915 5.29654 6.24244 5.29654H9.87488C9.95358 5.516 10.1579 5.67491 10.4046 5.67491C10.7179 5.67491 10.9722 5.42064 10.9722 5.10735V4.72897C10.9722 4.65329 10.957 4.57914 10.9283 4.51028C10.8995 4.44141 10.8579 4.37935 10.8064 4.32789L6.64428 0.165725C6.59207 0.113509 6.53077 0.0726476 6.4619 0.0438909C6.39304 0.0151341 6.31888 0 6.2432 0H2.83779C1.68979 0 0.756714 0.933081 0.756714 2.08108V11.1622C0.756714 12.3102 1.68979 13.2432 2.83779 13.2432H3.97293C4.28623 13.2432 4.5405 12.989 4.5405 12.6757C4.5405 12.3624 4.28547 12.1073 3.97217 12.1073ZM6.81001 1.93654L9.03412 4.16065H6.81001V1.93654ZM12.7604 6.52551C12.4706 6.23568 12.0513 6.06389 11.6109 6.05405C11.1568 6.02832 10.7293 6.20617 10.4356 6.49979L5.59693 11.3461C5.50158 11.4414 5.44331 11.5678 5.43196 11.7025L5.2965 13.387C5.28288 13.5535 5.34417 13.7185 5.46374 13.8358C5.57044 13.9417 5.71423 14 5.86255 14C5.8792 14 5.89661 13.9992 5.91401 13.9977L7.6152 13.8426C7.74763 13.8297 7.87099 13.7722 7.96482 13.6784L12.8035 8.83286C13.4074 8.23048 13.3862 7.15211 12.7604 6.52551ZM12.0021 8.02919L7.30871 12.7294L6.48385 12.8051L6.54817 12.0014L11.2393 7.3027C11.3135 7.22854 11.4489 7.19297 11.5851 7.18919C11.7342 7.19297 11.8735 7.24443 11.9567 7.32919C12.1353 7.50551 12.1588 7.87254 12.0021 8.02919Z" fill="black"/>
</g>
</g>
<defs>
<clipPath id="clip0_156_4510">
<rect width="14" height="14" fill="white"/>
</clipPath>
</defs>
</svg>

<svg xmlns="http://www.w3.org/2000/svg" fill="none" viewBox="0 0 14 14"><g clip-path="url(#a)"><path fill="#000" d="M3.972 12.107H2.837a.947.947 0 0 1-.946-.946v-9.08c0-.522.425-.947.946-.947h2.838V4.73c0 .313.254.568.567.568h3.633a.563.563 0 0 0 1.097-.19V4.73a.57.57 0 0 0-.166-.401L6.644.166a.56.56 0 0 0-.4-.166H2.837A2.083 2.083 0 0 0 .757 2.081v9.081c0 1.148.933 2.081 2.08 2.081h1.136a.568.568 0 1 0 0-1.136M6.81 1.937 9.034 4.16H6.81zm5.95 4.589c-.29-.29-.709-.462-1.15-.472a1.55 1.55 0 0 0-1.174.446l-4.84 4.846a.57.57 0 0 0-.164.357l-.136 1.684a.565.565 0 0 0 .618.61l1.701-.154a.57.57 0 0 0 .35-.165l4.839-4.845c.603-.603.582-1.68-.044-2.307m-.758 1.503-4.693 4.7-.825.076.064-.804 4.691-4.698c.074-.074.21-.11.346-.114.15.004.288.055.372.14.178.177.202.544.045.7"/></g><defs><clipPath id="a"><path fill="#fff" d="M0 0h14v14H0z"/></clipPath></defs></svg>
